image/zd.svg

<svg width="75" height="50" viewBox="0 0 75 50" fill="none" xmlns="http://www.w3.org/2000/svg">
<g clip-path="url(#clip0_1_367)">
<path fill-rule="evenodd" clip-rule="evenodd" d="M16.1671 49.4718L49.24 33.2289L45.8439 26.2486V17.5261L51.8341 27.9556H54.8481V11.9627H52.0591V22.6423L45.975 11.9627H43.0549V20.5162L33.0729 0L0 16.243L16.1671 49.4718ZM29.2745 23.4648V15.8394H31.2974C35.7287 15.8394 35.7743 19.1211 35.7743 20.0169C35.7743 20.843 35.728 24.1937 31.2974 24.1937H29.8724V28.0493H32.1645C37.8981 28.0493 40.3885 24.331 40.3885 20.0169C40.3885 16.4134 38.7435 11.9845 32.1652 11.9845H24.7977V24.1937H15.682L23.264 11.9845H10.6857L8.13435 15.8401H16.0016L7.88201 28.0493H25.7783L29.2745 23.4648ZM67.0745 24.7796L64.2336 24.269C64.0808 24.85 63.8488 25.2711 63.5446 25.5352C63.2397 25.7958 62.8661 25.9268 62.4196 25.9268C61.7657 25.9268 61.2154 25.6732 60.7759 25.1669C60.3364 24.6641 60.1079 23.957 60.0876 23.0479H67.2266C67.2645 20.6986 66.8215 18.9563 65.8977 17.8162C64.9703 16.6768 63.7072 16.107 62.1056 16.107C60.6792 16.107 59.4995 16.6514 58.5687 17.738C57.6336 18.8254 57.1668 20.3296 57.1668 22.2514C57.1668 23.8563 57.5236 25.1894 58.2322 26.243C59.1322 27.5606 60.5173 28.2162 62.3888 28.2162C63.572 28.2162 64.5589 27.9261 65.3439 27.3373C66.1332 26.7528 66.7079 25.9007 67.0745 24.7796ZM63.7591 19.1458C64.1643 19.607 64.3752 20.281 64.3963 21.1711H60.1395C60.1325 20.3331 60.3329 19.6711 60.7381 19.1866C61.1432 18.6986 61.6549 18.4528 62.278 18.4528C62.8598 18.4528 63.354 18.6838 63.7591 19.1458ZM74.4834 16.3711V18.8148H72.539V23.4838C72.539 24.4296 72.5558 24.9803 72.5944 25.1366C72.6312 25.2913 72.7204 25.4282 72.8467 25.5239C72.9785 25.6246 73.1411 25.6768 73.3276 25.6768C73.5939 25.6768 73.9745 25.5761 74.4764 25.3824L74.7189 27.7585C74.0544 28.0634 73.3072 28.2162 72.4661 28.2162C71.9537 28.2162 71.4904 28.1232 71.0783 27.9401C70.6668 27.7542 70.3654 27.512 70.172 27.2183C69.9778 26.9239 69.8467 26.5254 69.7703 26.0232C69.7114 25.669 69.6806 24.9465 69.6806 23.8634V18.8141H68.372V16.3718H69.6806V14.0669L72.539 12.2796V16.3711H74.4834Z" fill="black"/>
</g>
<defs>
<clipPath id="clip0_1_367">
<rect width="75" height="50" fill="white"/>
</clipPath>
</defs>
</svg>

<svg xmlns="http://www.w3.org/2000/svg" width="75" height="50" fill="none"><g clip-path="url(#a)"><path fill="#000" fill-rule="evenodd" d="M16.167 49.472 49.24 33.229l-3.396-6.98v-8.723l5.99 10.43h3.014V11.963H52.06v10.68l-6.084-10.68h-2.92v8.553L33.073 0 0 16.243l16.167 33.229Zm13.107-26.007v-7.626h2.023c4.432 0 4.477 3.282 4.477 4.178 0 .826-.046 4.177-4.477 4.177h-1.425v3.855h2.292c5.734 0 8.224-3.718 8.224-8.032 0-3.604-1.645-8.032-8.223-8.032h-7.367v12.209h-9.116l7.582-12.21H10.686L8.134 15.84h7.868l-8.12 12.21h17.896l3.497-4.585Zm37.8 1.315-2.84-.511c-.153.581-.385 1.002-.69 1.266-.304.26-.678.392-1.124.392-.654 0-1.205-.254-1.644-.76-.44-.503-.668-1.21-.688-2.12h7.139c.037-2.348-.406-4.09-1.33-5.23-.927-1.14-2.19-1.71-3.791-1.71-1.427 0-2.607.544-3.537 1.631-.935 1.087-1.402 2.592-1.402 4.513 0 1.605.357 2.938 1.065 3.992.9 1.318 2.285 1.973 4.157 1.973 1.183 0 2.17-.29 2.955-.879.79-.584 1.364-1.436 1.73-2.557Zm-3.315-5.634c.405.461.616 1.135.637 2.025H60.14c-.007-.838.194-1.5.6-1.984.404-.488.916-.734 1.539-.734.582 0 1.076.23 1.481.693Zm10.724-2.775v2.444H72.54v4.669c0 .946.017 1.496.055 1.653a.684.684 0 0 0 .253.387c.132.1.294.153.48.153.267 0 .648-.1 1.15-.295l.242 2.377c-.665.304-1.412.457-2.253.457-.512 0-.976-.093-1.388-.276-.411-.186-.713-.428-.906-.722-.194-.294-.325-.693-.402-1.195-.059-.354-.09-1.076-.09-2.16v-5.049h-1.308v-2.442h1.309v-2.305l2.858-1.787v4.091h1.944Z" clip-rule="evenodd"/></g><defs><clipPath id="a"><path fill="#fff" d="M0 0h75v50H0z"/></clipPath></defs></svg>
